assets/icons/utility/expand_all.svg

<?xml version="1.0"?><svg xmlns="http://www.w3.org/2000/svg" viewBox="0 0 52 52" width="52" height="52"><path fill="#fff" d="m48 9.5c0-0.8-0.7-1.5-1.5-1.5h-41c-0.8 0-1.5 0.7-1.5 1.5v3c0 0.8 0.7 1.5 1.5 1.5h41c0.8 0 1.5-0.7 1.5-1.5v-3z m0 30c0-0.8-0.7-1.5-1.5-1.5h-41c-0.8 0-1.5 0.7-1.5 1.5v3c0 0.8 0.7 1.5 1.5 1.5h41c0.8 0 1.5-0.7 1.5-1.5v-3z m-18-10.5h4.5c0.8 0 1.5-0.7 1.5-1.5v-3c0-0.8-0.7-1.5-1.5-1.5h-4.5c-0.6 0-1-0.4-1-1v-4.5c0-0.8-0.7-1.5-1.5-1.5h-3c-0.8 0-1.5 0.7-1.5 1.5v4.5c0 0.6-0.4 1-1 1h-4.5c-0.8 0-1.5 0.7-1.5 1.5v3c0 0.8 0.7 1.5 1.5 1.5h4.5c0.6 0 1 0.4 1 1v4.5c0 0.8 0.7 1.5 1.5 1.5h3c0.8 0 1.5-0.7 1.5-1.5v-4.5c0-0.6 0.4-1 1-1z"></path></svg>

<svg xmlns="http://www.w3.org/2000/svg" x="0px" y="0px"
	 viewBox="0 0 52 52" width="52" height="52" enable-background="new 0 0 52 52" xml:space="preserve">
<path fill="#FFFFFF" d="M48,9.5C48,8.7,47.3,8,46.5,8h-41C4.7,8,4,8.7,4,9.5v3C4,13.3,4.7,14,5.5,14h41c0.8,0,1.5-0.7,1.5-1.5V9.5z"
	/>
<path fill="#FFFFFF" d="M48,39.5c0-0.8-0.7-1.5-1.5-1.5h-41C4.7,38,4,38.7,4,39.5v3C4,43.3,4.7,44,5.5,44h41c0.8,0,1.5-0.7,1.5-1.5
	V39.5z"/>
<path fill="#FFFFFF" d="M30,29h4.5c0.8,0,1.5-0.7,1.5-1.5v-3c0-0.8-0.7-1.5-1.5-1.5H30c-0.6,0-1-0.4-1-1v-4.5c0-0.8-0.7-1.5-1.5-1.5
	h-3c-0.8,0-1.5,0.7-1.5,1.5V22c0,0.6-0.4,1-1,1h-4.5c-0.8,0-1.5,0.7-1.5,1.5v3c0,0.8,0.7,1.5,1.5,1.5H22c0.6,0,1,0.4,1,1v4.5
	c0,0.8,0.7,1.5,1.5,1.5h3c0.8,0,1.5-0.7,1.5-1.5V30C29,29.4,29.4,29,30,29z"/>
</svg>
